X:1
T:Title
%%score { ( 1 3 4 ) | ( 2 5 ) }
L:1/8
M:9/8
K:Db
V:1 treble nm="Grand Piano"
V:3 treble 
V:4 treble 
V:2 bass 
V:5 bass 
V:1
 z3 z2[Q:1/4=100] F FG=G | z2 D z2 A [GB]A=G | [FA]6 z3 | E6 z3 |[M:5/8] [DF]-[DF]- [DF]3 | %5
[M:2/4] FF G=G |[M:9/8] z2 D z2 A [GB]A=G | z2 D z2 A ABd | c6 z3 |[M:3/4] A6 | %10
[M:12/8] z3 z d2- d6 | z3 z e2- e6- | e3 z3 z6 | z3 z A2- A6 | z3 z d2- d6 | z3 z B2- B6 | %16
 z12[Q:1/4=99][Q:1/4=97][Q:1/4=96][Q:1/4=94][Q:1/4=93][Q:1/4=91][Q:1/4=90][Q:1/4=88][Q:1/4=87][Q:1/4=85][Q:1/4=84][Q:1/4=82][Q:1/4=81][Q:1/4=79][Q:1/4=78] | %17
[M:4/4] z4 d4-[Q:1/4=76] | d4 z4 |] %19
V:2
 z3 z2 D DE_F | [D,,D,]2 [F,A,] z2[K:treble] F z F_F | [D,,D,]2 [F,A,] z2[K:treble] F FED | %3
 A,,2 E, z2 E EDC |[M:5/8] D,2 D, D,2 |[M:2/4] DD E_F | %6
[M:9/8] [D,,D,]2 [F,A,] z2[K:treble] F z F_F | [C,,D,]2 [F,A,] z2[K:treble] F F2 F | %8
 E2- [E,E-] E2 E [E,A,]2 [E,=G,] |[M:3/4] [A,,A,][A,C] [A,D] [A,E]3 | %10
[M:12/8] z6 [D,A,] [D,A,]2 [D,A,] [D,A,]2 | z6[K:treble] [A,C] [A,C]2 [A,C] [A,C]2- | %12
 [A,C] [A,CG]2- [A,CG][K:bass] [D,D]2- [D,D] [D,A,]2- [D,A,] [G,B,G]2 | %13
 [G,B,G] [G,B,G]2 [G,DG] D,2 D, E,2 A,, D,2 | z6 [D,A,] [D,A,]2 [D,A,] [D,A,]2 | %15
 z3[K:treble] z G2- G[K:bass] z z z3 | z [G,D]2 z3 z6 |[M:4/4] z4 A,2 z2 | z8 |] %19
V:3
 x9 | [FA]6 z3 | z2 D z2 A AGF | [A,C]2 [A,C] z2 G GFE |[M:5/8] A,2 A, A,2 |[M:2/4] x4 | %6
[M:9/8] [FA]6 z3 | [FA]6 z3 | z2 A, z2 c [Fd][Ec][DB] |[M:3/4] CE F G3 | %10
[M:12/8] AAB .c3 F F2 F F2 | AAc .d3 G G2 G G2- | G e2- e [Af]2- [Af] [Fd]2- [Fd] d2 | %13
 e d2 B [DF]2 [DF] [CG]2 [CG] [DF]2 | AAB .c3 F F2 F F2 | FFG .A3 B, D2 D G2 | %16
 B[Bd]c [DGB] [DFA]2- [DFA] [DFA]2- [DFA] [CGB]2- |[M:4/4] [CGB] [A,GA]3 F2 FG- | GG F2 z4 |] %19
V:4
 x9 | z3 D3 z3 | z3 D3 z3 | z3 [A,C]3 z3 |[M:5/8] x5 |[M:2/4] x4 |[M:9/8] z3 D3 z3 | z3 D3 z3 | %8
 z3 A,3 z3 |[M:3/4] x6 |[M:12/8] x12 | x12 | x12 | x12 | x12 | x12 | x12 |[M:4/4] x8 | x8 |] %19
V:5
 x9 | z3 [F,A,]3[K:treble] [F,A,D]3 | z3 [F,A,]3[K:treble] .[F,A,D]3 | z3 E,3 .[E,A,C]3 | %4
[M:5/8] x5 |[M:2/4] x4 |[M:9/8] z3 [F,A,]3[K:treble] [F,A,D]3 | z3 [F,A,]3[K:treble] [F,A,D]3 | %8
 .[E,A,]3 E,3 z3 |[M:3/4] x6 |[M:12/8] x12 | x6[K:treble] x6 | x4[K:bass] x8 | x12 | x12 | %15
 D[K:treble]DE .F3 G,[K:bass] [G,B,]2 G, [G,D]2 | .[G,DG]2 A G, A,2- A, A,2- A, A,,2- | %17
[M:4/4] A,, A,,3 D,2- [D,-A,][D,B,]- | [D,-B,][D,-B,] [D,A,]2 z4 |] %19

